src/assets/outline/Tether.svg

<svg width="24" height="24" viewBox="0 0 24 24"  xmlns="http://www.w3.org/2000/svg">
<path d="M12.0002 21.3994C11.0602 21.3994 10.1202 21.0794 9.41022 20.4294L2.48021 14.1394C1.27021 13.0394 0.890211 11.0294 1.62021 9.56938L4.02022 4.74938C4.62022 3.54938 6.13022 2.60938 7.47022 2.60938H16.5302C17.8702 2.60938 19.3802 3.54938 19.9802 4.74938L22.3802 9.56938C23.1102 11.0294 22.7302 13.0394 21.5202 14.1394L14.5902 20.4294C13.8802 21.0694 12.9402 21.3994 12.0002 21.3994ZM7.47022 4.09938C6.69022 4.09938 5.71022 4.70937 5.36022 5.40937L2.96022 10.2294C2.54022 11.0794 2.78022 12.3794 3.49022 13.0194L10.4202 19.3094C11.2802 20.0894 12.7302 20.0894 13.5802 19.3094L20.5102 13.0194C21.2102 12.3794 21.4602 11.0794 21.0402 10.2294L18.6402 5.40937C18.2902 4.71937 17.3102 4.10938 16.5302 4.10938H7.47022V4.09938Z" />
<path d="M12 15.25C11.59 15.25 11.25 14.91 11.25 14.5V8.5C11.25 8.09 11.59 7.75 12 7.75C12.41 7.75 12.75 8.09 12.75 8.5V14.5C12.75 14.91 12.41 15.25 12 15.25Z" />
<path d="M16 9.25H8C7.59 9.25 7.25 8.91 7.25 8.5C7.25 8.09 7.59 7.75 8 7.75H16C16.41 7.75 16.75 8.09 16.75 8.5C16.75 8.91 16.41 9.25 16 9.25Z" />
</svg>

<?xml version="1.0" encoding="UTF-8"?>
<svg width="24" height="24" viewBox="0 0 24 24" xmlns="http://www.w3.org/2000/svg">
 <path d="m12 21.399c-0.94 0-1.88-0.32-2.59-0.97l-6.93-6.29c-1.21-1.1-1.59-3.11-0.86-4.57l2.4-4.82c0.6-1.2 2.11-2.14 3.45-2.14h9.06c1.34 0 2.85 0.94 3.45 2.14l2.4 4.82c0.73 1.46 0.35 3.47-0.86 4.57l-6.93 6.29c-0.71 0.64-1.65 0.97-2.59 0.97zm-4.53-17.3c-0.78 0-1.76 0.60999-2.11 1.31l-2.4 4.82c-0.42 0.85-0.18 2.15 0.53 2.79l6.93 6.29c0.86 0.78 2.31 0.78 3.16 0l6.93-6.29c0.7-0.64 0.95-1.94 0.53-2.79l-2.4-4.82c-0.35-0.69-1.33-1.3-2.11-1.3h-9.06v-0.01z"/>
 <path d="m12 15.25c-0.41 0-0.75-0.34-0.75-0.75v-6c0-0.41 0.34-0.75 0.75-0.75s0.75 0.34 0.75 0.75v6c0 0.41-0.34 0.75-0.75 0.75z"/>
 <path d="m16 9.25h-8c-0.41 0-0.75-0.34-0.75-0.75s0.34-0.75 0.75-0.75h8c0.41 0 0.75 0.34 0.75 0.75s-0.34 0.75-0.75 0.75z"/>
</svg>
